!!!!SEGMENT: pl-wn--sd-xvi-qu-273--039_gomolka-mikolaj--do-tegom-byl-mysl-swa-sklonil.krn
!!!cenid: 15xx:244
!!!COM: Gomółka, Mikołaj
!!!COM-rismid: pe30013343
!!!CDT: ~1535->1591/04/30
!!!CNT: Polish
!!!GTL: Melodiae na psalterz polski
!!!OTL: XXXIX. Do tegom był myśl swą skłonił,
!!!PDT: 1580
!!!AGN: Sacred
!!!SMS-siglum: PL-Wn
!!!SMS-shelfmark: SD XVI.Qu.273
!!!SMS-shelfwork: 039 G
!!!NIFC-rismid:
!!!ONB-nifc: Melodiae na psalterz polski
**kern	**text	**kern	**text	**kern	**text	**kern	**text
*part4	*part4	*part3	*part3	*part2	*part2	*part1	*part1
*staff4	*staff4	*staff3	*staff3	*staff2	*staff2	*staff1	*staff1
*clefF4	*	*clefC3	*	*clefC2	*	*clefC1	*
*k[b-]	*	*k[b-]	*	*k[b-]	*	*k[b-]	*
*B-:	*	*B-:	*	*B-:	*	*B-:	*
*M4/2	*	*M4/2	*	*M4/2	*	*M4/2	*
*met(C|)	*	*met(C|)	*	*met(C|)	*	*met(C|)	*
=-	=-	=-	=-	=-	=-	=-	=-
!	!	!	!	!	!	!'clefC2'	!
1B-	Do	1f	Do	1b-	Do	1dd	Do
2G	te-	2g	te-	2b-	te-	2b-	te-
2B-	-gom	2f	-gom	2b-	-gom	2dd	-gom
=3-	=3-	=3-	=3-	=3-	=3-	=3-	=3-
1F	był	1f	był	2.a	był	2.cc	był
.	.	.	.	4g	.	4b-	.
2F	myśl	2c/	myśl	2f	myśl	2a	myśl
2D/	ʃwą	2d	ʃwą	2f	ʃwą	1b-	ʃwą
=4-	=4-	=4-	=4-	=4-	=4-	=4-	=4-
2E	ʃťło:-	2c/	ʃťło:-	2g	ʃťło:-	.	.
2F	.	2c/	.	2f	.	2a	ʃťło:-
2BB-	-(nił)	2B-	-(nił)	2d	-(nił)	2b-	-(nił)
1F	A-	2c/	A-	2f	A-	2a	A-
=5-	=5-	=5-	=5-	=5-	=5-	=5-	=5-
.	.	2c/	.	2f	.	2a	.
2BB-	-bych	2d	-bych	4d	-bych	2b-	-b(ych)
.	.	.	.	4e	.	.	.
2F	ʃye	2c/	ʃye	2f	ʃye	2a	ʃye
2FF	był	2c/	był	2f	był	4g/	był
.	.	.	.	.	.	4a	.
=6-	=6-	=6-	=6-	=6-	=6-	=6-	=6-
!	!zawż-	!	!zawż-	!	!'zawż-'	!	!'zawż'
2GG	ӡawӡ-	2B-	ӡawӡ-	2d	ӡawӡ-	2g/	ӡawӡ-
2AA	-dy	2A	-dy	2c	-dy	1f	-dy
2BB-	chro-	2G	chro-	2d	chro-	.	.
2C	.	2G	.	4c	.	2e	chro-
.	.	.	.	4B-	.	.	.
=7-	=7-	=7-	=7-	=7-	=7-	=7-	=7-
1FF	-nił:	1F	-nił:	1A	-nił:	1f	-nił:
2r	.	2r	.	2r	.	2r	.
2BB-	Nie	2d	Nie	2B-	Nie	2f	Nie
=8-	=8-	=8-	=8-	=8-	=8-	=8-	=8-
!!LO:PB:g=original
4GG	tyl-	4B-	tyl-	2d	tyl-	2b-	tyl-
4AA	.	4c	.	.	.	.	.
4BB-	-ťo	4d	-ťo	2d	-ťo	2b-	-ťo
4C	.	4e	.	.	.	.	.
4D/	u-	2f	u-	2d	u-	2.a	u-
4E\	.	.	.	.	.	.	.
4F	.	2f	.	2c	.	.	.
4G	.	.	.	.	.	4b-	.
=9-	=9-	=9-	=9-	=9-	=9-	=9-	=9-
2A	-czyn-	4e	-czyn-	2c	-czyn-	4cc	-czyn-
.	.	4d	.	.	.	4b-	.
2B-	-ťu	4d	-ťu	4d	-ťu	1b-	-ťu
.	.	8cL	.	4e	.	.	.
.	.	8B-J	.	.	.	.	.
1F	ӡłé -	1c	ӡłé -	2.f	ӡłé -	.	.
.	.	.	.	.	.	2a	ӡłé -
.	.	.	.	4e/	.	.	.
=10-	=10-	=10-	=10-	=10-	=10-	=10-	=10-
2BB-	-go	2B-	-go	2d	-go	2b-	-go
2BB-	A-	2B-	A-	2f	A-	2dd	A-
2F	-le	2A	-le	2f	-le	2cc	-le
2G	y	2B-	y	4d	y	2b-	y
.	.	.	.	4e	.	.	.
=11-	=11-	=11-	=11-	=11-	=11-	=11-	=11-
1F	sło-	2.c/	sło-	2.f	sło-	2.a	sło-
.	.	4B-	.	4e/	.	4g	.
2FF	-wá	2A	-wá	2d	-wá	2f	-wá
2BB-	byʃt-	4B-	byʃt-	2d	byʃt-	1f	byʃt-
.	.	4A	.	.	.	.	.
=12-	=12-	=12-	=12-	=12-	=12-	=12-	=12-
1C	-ré-	4G	.	2.c	-ré-	.	.
.	.	4F	.	.	.	.	.
.	.	2G	-ré-	.	.	2e	-ré-
.	.	.	.	4B-	.	.	.
!!LO:N:vis=00
1FF/	-go.	1F	-go.	1A	-go.	1f/	-go.
=-	=-	=-	=-	=-	=-	=-	=-
*-	*-	*-	*-	*-	*-	*-	*-
!!!RDF**kern: l = terminal long
!!!system-decoration: s1,s2,s3,s4
!!!ENC:Anna Matuszewska
!!!END:2020-02-08
!!!URL-scan: https://polona.pl/item/melodiae-na-psalterz-polski,Nzk3MTM4ODQ/100 Scan on Polona
!!!IIIF: https://polona.pl/iiif/item/Nzk3MTM4ODQ/manifest.json
